src/app/favicon.svg

<svg viewBox="0 0 144 144" fill="none" xmlns="http://www.w3.org/2000/svg">
<rect width="144" height="144" fill="black"/>
<path d="M130.863 57.7389L130.395 55.4121L110.607 51.955L122.105 36.3983L120.768 34.9357L103.855 43.0465L105.994 21.5064L104.256 20.5092L93.9607 37.9274L82.3953 11.9995H80.3897L83.1306 37.0631L54.05 13.7945L51.5764 14.5258L73.9719 42.6476L29.649 27.8886L27.6434 30.149L67.2199 52.6863L12.6016 57.2071L12 60.5977L68.7574 66.7805L21.4262 105.938L23.4317 108.664L79.788 78.0159L68.6238 131.999H72.0332L93.6264 81.207L106.796 120.963L109.136 119.168L103.721 78.7472L124.245 102.016L125.582 99.8884L109.871 71.0353L131.799 79.1461L132 76.6862L112.345 62.1932L130.863 57.7389Z" fill="#FED42B"/>
</svg>

<svg xmlns="http://www.w3.org/2000/svg" viewBox="0 0 144 144">
    <path fill="#FFBC0D" d="m130.863 57.739-.468-2.327-19.788-3.457 11.498-15.557-1.337-1.462-16.913 8.11 2.139-21.54-1.738-.997-10.295 17.418L82.395 12H80.39l2.74 25.064-29.08-23.269-2.474.732 22.396 28.122-44.323-14.76-2.006 2.261L67.22 52.686l-54.618 4.521-.602 3.39 56.757 6.184-47.33 39.157 2.005 2.726 56.356-30.648-11.164 53.983h3.41l21.592-50.792 13.17 39.756 2.34-1.795-5.415-40.42 20.524 23.268 1.337-2.128-15.711-28.853 21.928 8.111.201-2.46-19.655-14.493 18.518-4.454Z"/>
    <style>
        @media (prefers-color-scheme: light) { path { fill: #FFBC0D; } }
        @media (prefers-color-scheme: dark) { path { fill: #FED42B; } }
    </style>
</svg>
